X: 2
T: The Braes of Breadalbane 2
C: McFadyen
R: strathspey
B: RSCDS 21-7(II)
Z: 1997 by John Chambers <jc:trillian.mit.edu>
M: 4/4
L: 1/8
K: C
G |\
"C"c>d e>d "F"c>A "C"GE | "C"CG cB/c/ "G7"dD DG |\
"C"c>d e>d "F"c>A "C"GE | "G7"G,<G, A,>B, "C"C3 :|
e/f/ |\
"C"g>a gf/e/ c'g ec | "F"fa/f/ "C"eg/e/ "Dm"d>c "G7"de |\
"C"g>a gf/e/ c'g ec | "Dm"f>d "G7"e>B "C"c3 |]
e/f/ |\
"C"g>a gf/e/ c'g ec | "F"f/a/g/f/ "C"e/g/f/e/ "Dm"d>c "G7"de |\
"C"G>c e>d "F"c>A "C"GE | "G7"G,<G, A,>B, "C"C3 |]
%%center Book21/BraesOfBreadalbane2_C-JC.abc

%%sep 1 1 500
%%sep 1 1 500

